X: 3461
T: Betty Black
R: barndance
M: 4/4
K: Gmajor
g|:B2 AG A2 D2|B2 AG Bd g2|B2 AG A2 D2|EGFA G2 Gd:|
edef gfed|BABd g2 G2|edef gfed|BABd e3 d|
edef gfed|egfa gfga|bagf gfed|BABd edef||

